apps/16/javaws.svg

<?xml version="1.0" encoding="UTF-8"?>
<svg id="b" width="16" height="16" version="1.1" xmlns="http://www.w3.org/2000/svg" xmlns:cc="http://creativecommons.org/ns#" xmlns:dc="http://purl.org/dc/elements/1.1/" xmlns:rdf="http://www.w3.org/1999/02/22-rdf-syntax-ns#">
	<metadata id="d">
		<rdf:RDF>
			<cc:Work rdf:about="">
				<dc:format>image/svg+xml</dc:format>
				<dc:type rdf:resource="http://purl.org/dc/dcmitype/StillImage"/>
				<dc:title/>
			</cc:Work>
		</rdf:RDF>
	</metadata>
	<defs id="k">
		<style id="current-color-scheme" type="text/css">.ColorScheme-Text {color:#090d11;}.ColorScheme-Background{color:#ffffff;}</style>
	</defs>
	<path id="a" d="m8 1c-2.1561 0-7.8281 11.313-6.75 13.469 0.539 1.0781 3.6506-1.125 6.75-1.125s6.211 2.2031 6.75 1.125c1.0781-2.1561-4.5939-13.469-6.75-13.469zm0 5c1.1046 0 2 0.89543 2 2s-0.89543 2-2 2-2-0.89543-2-2 0.89543-2 2-2z" style="fill-opacity:.75;fill:currentColor" class="ColorScheme-Text"/>
	<path id="e" d="m8-0.1875c-0.7945 0-1.2897 0.37905-1.75 0.78125-0.4603 0.4023-0.8717 0.9093-1.3125 1.5-0.8816 1.1815-1.794 2.713-2.5938 4.3125-0.7997 1.5994-1.4961 3.2594-1.9375 4.7188-0.2208 0.7297-0.3694 1.4024-0.4375 2.0312-0.068 0.6288-0.10385 1.2298 0.21875 1.875 0.2067 0.4135 0.6682 0.7559 1.0625 0.875 0.3943 0.119 0.72655 0.1032 1.0312 0.0625 0.6092-0.08 1.159-0.2897 1.7812-0.5 1.2444-0.4204 2.6719-0.90625 3.9375-0.90625s2.6931 0.48585 3.9375 0.90625c0.6222 0.2103 1.2032 0.4196 1.8125 0.5 0.3046 0.04 0.63695 0.0565 1.0312-0.0625 0.3942-0.1191 0.82455-0.4615 1.0312-0.875 0.3226-0.6452 0.28675-1.2462 0.21875-1.875-0.068-0.6289-0.2167-1.3016-0.4375-2.0312-0.4414-1.4594-1.1378-3.1194-1.9375-4.7188-0.7998-1.5995-1.6809-3.131-2.5625-4.3125-0.4407-0.5907-0.88345-1.0977-1.3438-1.5-0.4603-0.4022-0.9555-0.78125-1.75-0.78125zm0 1.1875c2.1561 0 7.8281 11.313 6.75 13.469-0.539 1.0781-3.6506-1.125-6.75-1.125s-6.211 2.2031-6.75 1.125c-1.0781-2.1561 4.5939-13.469 6.75-13.469zm0 5c-1.1046 0-2 0.89543-2 2s0.89543 2 2 2 2-0.89543 2-2-0.89543-2-2-2z" style="fill-opacity:.5;fill:currentColor" class="ColorScheme-Background"/>
</svg>

<?xml version="1.0" encoding="UTF-8" standalone="no"?>
<!-- Created with Inkscape (http://www.inkscape.org/) -->

<svg
   xmlns:dc="http://purl.org/dc/elements/1.1/"
   xmlns:cc="http://creativecommons.org/ns#"
   xmlns:rdf="http://www.w3.org/1999/02/22-rdf-syntax-ns#"
   xmlns:svg="http://www.w3.org/2000/svg"
   xmlns="http://www.w3.org/2000/svg"
   xmlns:xlink="http://www.w3.org/1999/xlink"
   xmlns:sodipodi="http://sodipodi.sourceforge.net/DTD/sodipodi-0.dtd"
   xmlns:inkscape="http://www.inkscape.org/namespaces/inkscape"
   width="16"
   height="16"
   id="svg13094"
   version="1.1"
   inkscape:version="0.48.3.1 r9886"
   sodipodi:docname="javaws.svg">
  <sodipodi:namedview
     id="base"
     pagecolor="#ffffff"
     bordercolor="#666666"
     borderopacity="1.0"
     inkscape:pageopacity="0.0"
     inkscape:pageshadow="2"
     inkscape:zoom="32"
     inkscape:cx="4.5811511"
     inkscape:cy="10.104672"
     inkscape:document-units="px"
     inkscape:current-layer="layer1"
     showgrid="true"
     inkscape:snap-bbox="true"
     inkscape:bbox-paths="true"
     inkscape:bbox-nodes="true"
     inkscape:snap-bbox-edge-midpoints="true"
     inkscape:snap-bbox-midpoints="true"
     inkscape:object-paths="true"
     inkscape:snap-intersection-paths="true"
     inkscape:object-nodes="true"
     inkscape:snap-smooth-nodes="true"
     inkscape:snap-midpoints="true"
     inkscape:snap-object-midpoints="true"
     inkscape:snap-center="true"
     showguides="false"
     inkscape:guide-bbox="true"
     inkscape:window-width="1920"
     inkscape:window-height="1023"
     inkscape:window-x="-10"
     inkscape:window-y="35"
     inkscape:window-maximized="1"
     inkscape:snap-global="true"
     fit-margin-top="0"
     fit-margin-left="0"
     fit-margin-right="0"
     fit-margin-bottom="0"
     showborder="true"
     inkscape:showpageshadow="false">
    <sodipodi:guide
       orientation="0,1"
       position="-20.000165,933.61275"
       id="guide4700" />
    <sodipodi:guide
       orientation="0,1"
       position="581.7187,331.89377"
       id="guide4702" />
    <sodipodi:guide
       orientation="1,0"
       position="581.71882,492.70384"
       id="guide4706" />
    <sodipodi:guide
       orientation="1,0"
       position="59.999836,933.61275"
       id="guide4708" />
    <sodipodi:guide
       orientation="0,1"
       position="-20.000165,853.61285"
       id="guide4710" />
    <sodipodi:guide
       orientation="0,1"
       position="541.7187,411.89369"
       id="guide4712" />
    <sodipodi:guide
       orientation="1,0"
       position="501.7187,411.89369"
       id="guide4714" />
    <inkscape:grid
       type="xygrid"
       id="grid3216"
       empspacing="5"
       visible="true"
       enabled="true"
       snapvisiblegridlinesonly="true"
       originx="-20.000111px"
       originy="-216.00016px" />
    <sodipodi:guide
       orientation="-0.70710664,0.70710692"
       position="8.9998902,-243.00016"
       id="guide3847" />
    <sodipodi:guide
       orientation="0.70710594,0.70710762"
       position="9.9998902,-242.00016"
       id="guide3849" />
    <sodipodi:guide
       orientation="-0.70710681,0.70710676"
       position="11.99989,-209.00016"
       id="guide3851" />
  </sodipodi:namedview>
  <defs
     id="defs13096">
    <radialGradient
       inkscape:collect="always"
       xlink:href="#linearGradient3921"
       id="radialGradient3927"
       gradientUnits="userSpaceOnUse"
       gradientTransform="matrix(0,0.83869489,-0.77159925,0,48.34641,-4.1958196)"
       cx="41.21978"
       cy="13.733048"
       fx="41.21978"
       fy="13.733048"
       r="32" />
    <linearGradient
       id="linearGradient3921">
      <stop
         offset="0"
         style="stop-color:#ffffff;stop-opacity:1"
         id="stop3923" />
      <stop
         offset="1"
         style="stop-color:#acc2c0;stop-opacity:1;"
         id="stop3925" />
    </linearGradient>
    <radialGradient
       inkscape:collect="always"
       xlink:href="#linearGradient3921-2"
       id="radialGradient3927-0"
       gradientUnits="userSpaceOnUse"
       gradientTransform="matrix(0,0.83869489,-0.77159925,0,48.34641,-4.1958196)"
       cx="41.21978"
       cy="13.733048"
       fx="41.21978"
       fy="13.733048"
       r="32" />
    <linearGradient
       id="linearGradient3921-2">
      <stop
         offset="0"
         style="stop-color:#ffffff;stop-opacity:1"
         id="stop3923-3" />
      <stop
         offset="1"
         style="stop-color:#acc2c0;stop-opacity:1;"
         id="stop3925-2" />
    </linearGradient>
  </defs>
  <metadata
     id="metadata13099">
    <rdf:RDF>
      <cc:Work
         rdf:about="">
        <dc:format>image/svg+xml</dc:format>
        <dc:type
           rdf:resource="http://purl.org/dc/dcmitype/StillImage" />
        <dc:title />
      </cc:Work>
    </rdf:RDF>
  </metadata>
  <g
     transform="translate(9384.3076,-4846.1987)"
     id="layer1"
     inkscape:groupmode="layer"
     inkscape:label="Camada 1">
    <path
       style="color:#000000;fill:#27303a;fill-opacity:0.753280819999999968;fill-rule:nonzero;stroke:none;stroke-width:1.84211969;marker:none;visibility:visible;display:inline;overflow:visible;enable-background:accumulate"
       d="M 8 1 C 5.8439 1 0.1719 12.31265 1.25 14.46875 C 1.789 15.54685 4.9006 13.34375 8 13.34375 C 11.0994 13.34375 14.211 15.54685 14.75 14.46875 C 15.8281 12.31265 10.1561 1 8 1 z M 8 6 C 9.1045695 6 10 6.8954305 10 8 C 10 9.1045695 9.1045695 10 8 10 C 6.8954305 10 6 9.1045695 6 8 C 6 6.8954305 6.8954305 6 8 6 z "
       transform="translate(-9384.3076,4846.1987)"
       id="path3048" />
    <path
       style="font-size:medium;font-style:normal;font-variant:normal;font-weight:normal;font-stretch:normal;text-indent:0;text-align:start;text-decoration:none;line-height:normal;letter-spacing:normal;word-spacing:normal;text-transform:none;direction:ltr;block-progression:tb;writing-mode:lr-tb;text-anchor:start;baseline-shift:baseline;color:#000000;fill:#f1f3f5;fill-opacity:0.90288714000000003;fill-rule:nonzero;stroke:none;stroke-width:2;marker:none;visibility:visible;display:inline;overflow:visible;enable-background:accumulate;font-family:Sans;-inkscape-font-specification:Sans"
       d="M 8 -0.1875 C 7.2055 -0.1875 6.7103 0.19155 6.25 0.59375 C 5.7897 0.99605 5.3783 1.50305 4.9375 2.09375 C 4.0559 3.27525 3.14355 4.80675 2.34375 6.40625 C 1.54405 8.00565 0.84765 9.6656 0.40625 11.125 C 0.18545 11.8547 0.03685 12.52735 -0.03125 13.15625 C -0.09925 13.78505 -0.1351 14.38605 0.1875 15.03125 C 0.3942 15.44475 0.8557 15.78715 1.25 15.90625 C 1.6443 16.02525 1.97655 16.00945 2.28125 15.96875 C 2.89045 15.88875 3.4403 15.67905 4.0625 15.46875 C 5.3069 15.04835 6.7344 14.5625 8 14.5625 C 9.2656 14.5625 10.6931 15.04835 11.9375 15.46875 C 12.5597 15.67905 13.1407 15.88835 13.75 15.96875 C 14.0546 16.00875 14.38695 16.02525 14.78125 15.90625 C 15.17545 15.78715 15.6058 15.44475 15.8125 15.03125 C 16.1351 14.38605 16.09925 13.78505 16.03125 13.15625 C 15.96325 12.52735 15.81455 11.8547 15.59375 11.125 C 15.15235 9.6656 14.45595 8.00565 13.65625 6.40625 C 12.85645 4.80675 11.97535 3.27525 11.09375 2.09375 C 10.65305 1.50305 10.2103 0.99605 9.75 0.59375 C 9.2897 0.19155 8.7945 -0.1875 8 -0.1875 z M 8 1 C 10.1561 1 15.8281 12.31265 14.75 14.46875 C 14.211 15.54685 11.0994 13.34375 8 13.34375 C 4.9006 13.34375 1.789 15.54685 1.25 14.46875 C 0.1719 12.31265 5.8439 1 8 1 z M 8 6 C 6.8954305 6 6 6.8954305 6 8 C 6 9.1045695 6.8954305 10 8 10 C 9.1045695 10 10 9.1045695 10 8 C 10 6.8954305 9.1045695 6 8 6 z "
       transform="translate(-9384.3076,4846.1987)"
       id="path3003" />
  </g>
</svg>
